X:1
P: Captain Horne
C: from B. McOwen/SRSNH, arr. T. Traub 2-24-2004
R: Strathspey
M: 4/4
K: D
L: 1/8
|: e|"D"f>A A/A/A "G"B<Gd>e|"D"f>A A/A/A "G"Be|"D"f>A A/A/A "G"B<G g2|"Em7"f<a"A7"e>d "D"B<d d :|
|: e|"D"f2 f>d f2 f<a|"D"f2 f>d "A7"e>f a2|"D"f2 f>d "G"e>fg>e|"A"a>fe>d "D"B<d d :|
